!!!SOCIAL_FUNCTION:	bird dance songs
!!!PDT:	1956
!!!OTL: No_154_Switchgrass_Dance_Song_(d).krn
!!!LANG: Non-Tone
!!!LING_GROUP: Muskogean
!!!REG: Florida
**kern
*staff1
=1-
*clefF4
*k[f#]
*M2/4
8d\L
8d\J
16d\LL
16B\J
8G\J
=2!|:
16B\LL
16A\
16A\
16G\JJ
16G\LL
16D\J
8D\J
=3||
*M3/4
8E\L
16D\L
16D\JJ
4D\
8D\
8r
=4
8E\L
16D\L
16D\JJ
4D\
8D\
8r
=5||
*M2/4
8G\L
8G\J
8G\L
8A\J
=6
16B\LL
16A\
16A\
16G\JJ
16G\LL
16D\J
8D\J
=7||
*M3/4
8E\L
16D\L
16D\JJ
4D\
8D\
8r
=8
8E\L
16D\L
16D\JJ
4D\
8D\
8r
=9
*M2/4
8d\L
16.c\L
32B\JJk
8G\L
8A\J
==:|!
*-
